public/icon/svg/Greasy.fork.svg

<?xml version="1.0" encoding="UTF-8"?>
<svg width="1024px" height="1024px" viewBox="0 0 1024 1024" version="1.1" xmlns="http://www.w3.org/2000/svg" xmlns:xlink="http://www.w3.org/1999/xlink">
    <title>Greasy.fork</title>
    <g id="ICON-新版方图标" stroke="none" stroke-width="1" fill="none" fill-rule="evenodd">
        <g id="Greasy.fork" fill-rule="nonzero">
            <polygon id="路径" fill="#000000" points="1024 1024 1024 1.1072384e-15 0 0 0 1024"></polygon>
            <path d="M407.818995,251.123591 C515.759675,360.093309 517.817751,363.126263 512.72672,400.821553 C508.664728,440.520759 508.664728,440.520759 695.028942,629.917928 C797.878591,733.796615 882.422194,824.406127 882.422194,831.555233 C882.422194,860.04334 859.999995,883.494577 834.544843,883.494577 C813.151682,883.494577 768.361445,844.824409 618.663483,696.101325 C456.725384,535.192264 426.179201,509.737111 410.906109,517.915256 C377.326972,537.25034 349.813743,518.944294 241.873063,411.003614 C161.391453,330.522004 137.994376,301.004858 143.085407,286.760805 C149.205475,271.487713 163.449529,282.698812 230.661964,348.88221 L312.118453,429.30966 L334.540651,406.887462 L356.962849,384.465263 L277.510277,304.091973 C224.541895,250.094553 202.173857,221.606446 210.297842,216.515415 C218.421827,211.424385 251.026086,237.908576 300.907353,286.760805 L378.30185,364.155301 L401.698926,341.733103 L424.121125,318.336026 L346.726628,240.94153 C279.514193,172.700057 261.208147,140.095797 289.696254,140.095797 C293.758247,140.095797 346.726628,190.031225 407.818995,251.123591 Z" id="路径" fill="#FFFFFF"></path>
        </g>
    </g>
</svg>

<svg xmlns="http://www.w3.org/2000/svg" width="1024" height="1024"><g fill="none" fill-rule="nonzero"><path fill="#000" d="M1024 1024V0H0v1024z"/><path fill="#FFF" d="M407.819 251.124c107.94 108.97 109.999 112.002 104.908 149.698-4.062 39.699-4.062 39.699 182.302 229.096 102.85 103.879 187.393 194.488 187.393 201.637 0 28.488-22.422 51.94-47.877 51.94-21.393 0-66.184-38.67-215.882-187.394C456.725 535.192 426.18 509.737 410.906 517.915c-33.579 19.335-61.092 1.03-169.033-106.911-80.482-80.482-103.879-110-98.788-124.243 6.12-15.273 20.365-4.062 87.577 62.121l81.456 80.428 22.423-22.423 22.422-22.422-79.453-80.373c-52.968-53.997-75.336-82.486-67.212-87.577 8.124-5.09 40.728 21.394 90.61 70.246l77.394 77.394 23.397-22.422 22.422-23.397-77.394-77.394c-67.213-68.242-85.519-100.846-57.03-100.846 4.061 0 57.03 49.935 118.122 111.028"/></g></svg>
